X:110 
T:Loo Bridge Jig*, The  
B:CRE4.024 (gan ainm, no repeats)
S:Grier MS
F:file ID: cre.4/110loo_b
%Q:160
L:1/8
M:6/8
R:jig
K:G
A|BcB AFE|DED GED|A2c BGE|ABA A2c|
BcB AFE|DED GED|G2c BGE|DEF G2 :|
A|BAG Bcd|efg edc|BAG Bcd|ecB A2c|
BAG Bcd|efg edB|c2A BcB|AGF G2 :|

%%%


